X:2
T:Johnnie Scobie (ornamented version)
T:We're No Awa Tae Bide Awa (ornamented version)
Z:Transcibed by Frank Nordberg - http://www.musicaviva.com
S:Frank Nordberg <frnordbe@online.no> abcusers 2001-7-7
M:C
L:1/8
Q:1/4=120
K:Hp %A mixolydian
AB|{G/d/G/}c3e {g/e/}dc{g/c/}B{G/}A|{g/d/}c2{d/}A2
{G/A/G/}A2{g/d/}ce|{g/}a4 {G/d/G/}ag{e/}fe|{g/f/g/}f4 {g/}e2{g/}f>g|
{g}a4 {G/d/G/}a2c2{G/c/}|d2f2 {g/f/}e3{A/}e|{g/}f2{g/}e2
{g/}a2c2|{g/d/}B4 {G/}A2:|
